X: 159
T:The Old Queen
M:3/4
L:1/8
Q:150
C:Ian Luff
K:D
B=c^c|:d2 d2 B2|c2 AB c2|dc Bd cB|c2 AGFG|E2 EFGA|B2 BAGF|FE DE FG|A3 AB
c|
d2 d2 B2|c2 AB c2|dc Bd cB|c2 AGFG|E2 EFGA|B2 BAGF|1ED EF E2|D3 EFA:|2ED
 EF E2|D3||
za2|:ag e3f|gf d3c|AB cd ef|e2 d3 (a|a)^g eg fe|
fd B3A|1^Gd ed ^Gd|c2 AB ce:|2^Gd ed ^Gd|A3|]
%
W:
W:from the playing of Chris Wood and Andy Cutting on 'Lusignac' (RUFCD04
